X:1
T:Douze Etudes
T:Étude.
T:F. CHOPIN. Op. 25, No. 4
C:F. CHOPIN Op. 25, No. 1
Z:a Mme la Comtesse d'AGOULT
%%score { ( 1 3 ) | 2 }
L:1/8
Q:1/4=120
M:4/4
K:C
V:1 treble nm="Piano" snm="Pno."
V:3 treble 
V:2 bass 
V:1
"^Agitato. (.)" z2 |!p! z !wedge![EAe] z !wedge![Aea] z !wedge![Ada] z !wedge![^Ge^g] | %2
 z !wedge![Ae] z !wedge![cec'] z !wedge![cfc'] z !wedge![Bfb] | %3
 z !wedge![Afa] z !wedge![eae'] z !wedge![dad'] z !wedge![e^ge'] | %4
 z !wedge![cec'] z !wedge![^Ge^g] z !wedge![Aea] z !wedge![cec'] | %5
 z !wedge![Beb] z !wedge![Aea] z !wedge![EBe] z !wedge![Aea] | %6
 z !wedge![Beb] z !wedge![Aea] z !wedge![EBe] z !wedge![Aea] | %7
 z !wedge![Beb] z !wedge![cec'] z !wedge![GBg] z !wedge![AB^f] | %8
 z!<(! !wedge![^GBe] z !wedge![Ac^f] z!<)! !wedge![=GB=f=g] z !wedge![^Gde^g] | %9
 x3!>(! (!>!a4 ^g)!>)! | x3!>(! !>!c'4 b-!>)! | b!<(!a"_stacc." x (e'2 d'2 e'-!<)! | %12
!>(! e' c'2 b2!>)! a3) | x (b2 a2 e2 a) | x (b2 a2 e2 a) | x (b2 c'2 g2 ^f-) | f e7 | %17
!pp! x (b2 c'2 g2 ^f) | x!<(! (e4 f3!<)! | z!f! !>![Aca]2 !>![_AB_a]2 !>![G_Bg]) z !>![EBc] | %20
 z !>![G_Bg] z !>![EBc] z !>![GBg] z !>![Af] | z (!>![F_Af]2 !>![_FG_f]2 !>![_E_G_e]) z !>![CGA] | %22
 z !>![_G_A_e] z !>![CGA] x (!>!e2 _d- |d c2"^cresc." _B2 _A2 _e- | e _d2 _B2 d2 c- | %25
c _e2 _d2 c2 f- |f _e2 c2 e2 =d- |!f! d) _a2 g2 [_Bc]2 f | %28
 z !>![_Ad_a] z !>![Gdg] z !>![E_Bc] z !>![FAf] | %29
 z !wedge![Gcg] z !wedge![_Ac_a] z !wedge![_EG_e] z !wedge![FGd] | z !>!c7 | %31
!pp! z"_poco riten." !>![Gcg]2 !>![_Ac_a]2 !>![_EG_e]2 d- | d !>!c7 | %33
!f! z!<(! !>![Gcg]2 !>![_Ac_a]2 !>![cfc']2 !>![dg=b]!<)! | %34
 z!>(! !>![_B=e_b]2 !>![_Af_a]2 !>![G_eg]!>)! z (=B- |!p! B c2 _d2 c2 =d- | %36
!<(! d c2 _d2 c2!<)! =d- |d c2!>(! d2 c2 _d- | d c2 =d2!>)! ^d2 e- | e) (e2!>(! !>!a4 ^g)!>)! | %40
 x2 (!>!c'4 x b- | ba) z!<(! !^![eae'] z !^![dad'] z !^![e^ge']!<)! | %42
!>(! z !^![cec'] z !^![^Ge^g] z !^![Aea]!>)! z !^![cec'] | %43
 z !^![Beb] z !^![Aea] z !^![EBe] z !^![Aea] | z !^![Beb] z!<(! !^![Aea] z !^![EBe] z !^![Aea] | %45
 z !^![Beb]!<)! z!>(! !^![cec'] z !^![GBg] z !^![AB^f]!>)! | %46
!<(! z !^![^GBe] z !^![Ac^f] z !^![=GB=f=g] z !^![^Gde^g]!<)! | z [Acea] z!>(! (a4 ^g-!>)! | %48
 g a2)!>(! (c'4 b-!>)! |b a2)!<(! (e'2 d'2 e'-!<)! | e'!>(! c'2 b2 a3!>)! | z b2 a2 e2 a- | %52
 a!<(! b2 a2 e z!<)! !>!=g | x !>!_g2!>(! !>!f2 !>!d x !>!=B)!>)! |!p! z (!>!A7- | %55
!pp! A3!>(! e2 d2 =B-!>)! | B) (A7- | A3!<(! e2 a x ^g-!<)! | g!>(! =g2 ^f2 =f!>)! x =B- | %59
B A2 F2 [_Bd]2 =B- | B [CA]2 [EAe]2 [F_Bd]2 !>![D^G]- | [DG]) (A4 c2 _B- | %62
B A4"^rall."[Q:1/4=120] c2[Q:1/4=97][Q:1/4=74]"^.7" _B) | %63
[Q:1/4=52]"^Lento"{/D} !arpeggio![DF_B]8- | (B4 d2 ^c2) | !arpeggio!!fermata![^CEA]8 |] %66
V:2
 (!>!E,2 | %1
 !wedge!A,,)!wedge![E,C] !wedge!C,!wedge![A,E] !wedge!B,,!wedge![F,D] !wedge!E,!wedge![B,E] | %2
 !wedge!C,!wedge![A,E] !wedge!A,,!wedge![A,E] !wedge!D,!wedge![A,F] !wedge!D,!wedge![^G,F] | %3
 !wedge!C,!wedge![A,F] !wedge!C,!wedge![A,E] !wedge!B,,!wedge![F,D] !wedge!E,,!wedge![E,B,D] | %4
 !wedge!A,,!wedge![E,C] !wedge!B,,!wedge![E,D] !wedge!C,!wedge![E,E] !wedge!A,,!wedge![E,C] | %5
 !wedge!E,,!wedge![E,D] !wedge!A,,!wedge![E,C] !wedge!B,,!wedge![E,^G,D] !wedge!A,,!wedge![E,A,C] | %6
 !wedge!E,,!wedge![E,^G,D] !wedge!A,,!wedge![E,A,C] !wedge!B,,!wedge![E,G,D] !wedge!A,,!wedge![E,A,C] | %7
 !wedge!=G,,!wedge![=G,E] !wedge!A,,!wedge![A,E] !wedge!B,,!wedge![B,E] !wedge!B,,!wedge![B,^D] | %8
 !wedge!E,!wedge![B,E] !wedge!^D,!wedge![C^F] !wedge!=D,!wedge![B,=F] !wedge!E,,!wedge![B,E] | %9
 !wedge!A,,!wedge![A,E]!ped! !wedge!C,!wedge![A,E] !wedge!B,,!ped-up!!wedge![F,D] !wedge!E,!wedge![B,E] | %10
 !wedge!C,!wedge![A,E]!ped! !wedge!A,,!wedge![A,E] !wedge!D,!ped-up!!wedge![A,F] !wedge!D,!wedge![^G,F] | %11
 !wedge!C,!wedge![A,F]!ped! !wedge!C,!wedge![A,E] !wedge!B,,!ped-up!!wedge![F,D] !wedge!E,,!wedge![E,B,D] | %12
!ped! !wedge!A,,!wedge![E,C]!ped-up!!ped! !wedge!B,,!wedge![E,^G,D]!ped-up!!ped! !wedge!C,!wedge![E,A,E]!ped-up!!ped! !wedge!A,,!wedge![E,C]!ped-up! | %13
!ped! !wedge!E,,!wedge![E,D]!ped-up!!ped! !wedge!A,,!wedge![E,C]!ped-up!!ped! !wedge!B,,!wedge![E,^G,D]!ped-up!!ped! !wedge!A,,!wedge![E,A,C]!ped-up! | %14
!ped! !wedge!E,,!wedge![E,D]!ped-up!!ped! !wedge!A,,!wedge![E,C]!ped-up!!ped! !wedge!B,,!wedge![E,^G,D]!ped-up!!ped! !wedge!A,,!wedge![E,A,C]!ped-up! | %15
!ped! !wedge!E,,!wedge![E,D]!ped-up!!ped! !wedge!A,,!wedge![E,C]!ped-up!!ped! !wedge!B,,!wedge![E,^G,D]!ped-up!!ped! !wedge!A,,!wedge![E,A,C]!ped-up! | %16
!ped! !wedge!E,!wedge![B,E]!ped-up! !wedge!A,,!wedge![A,E]!ped! !wedge!E,!wedge![B,E]!ped-up! !wedge!A,,!wedge![A,E] | %17
!ped! !wedge!G,,!wedge![G,E]!ped-up!!ped! !wedge!A,,!wedge![G,E]!ped-up!!ped! !wedge!B,,!wedge![B,E]!ped-up!!ped! !wedge!B,,!wedge![B,^D]!ped-up! | %18
 !wedge!E,!wedge![G,B,E] !wedge!^D,!wedge![G,B,E] !wedge!=D,!wedge![^G,B,F] !wedge!_D,!wedge![G,B,F] | %19
!ped! !wedge!C,!wedge![A,F] !wedge!C,!wedge![_A,F]!ped-up!!ped! !wedge!C,!wedge![=G,E] !wedge!C,!wedge![G,C] | %20
 !wedge!C,!wedge![G,E] !wedge!C,!wedge![G,C] !wedge!C,!wedge![G,E]!ped-up! !wedge!F,!wedge![A,F] | %21
!ped! !wedge!_A,,!wedge![F,_D] !wedge!A,,!wedge![_F,D]!ped-up!!ped! !wedge!A,,!wedge![_E,C] !wedge!A,,!wedge![E,_A,] | %22
 !wedge!_A,,!wedge![_E,C] !wedge!A,,!wedge![E,_A,] !wedge!A,,!wedge![E,C]!ped-up! !wedge!A,,!wedge![F,_D] | %23
!ped! !wedge!_A,,!wedge![_E,C] !wedge!A,,!ped-up!!wedge![_D,_B,]!ped! !wedge!A,,!wedge![C,_A,] !wedge!A,,!wedge![_G,_E]!ped-up! | %24
!ped! !wedge!_A,,!wedge![F,_D] !wedge!A,,!wedge![_D,_B,] !wedge!A,,!wedge![F,=D] !wedge!A,,!ped-up!!wedge![_E,C] | %25
!ped! !wedge!_A,,!wedge![_G,_E] !wedge!A,,!ped-up!!wedge![F,_D]!ped! !wedge!A,,!wedge![_E,C] !wedge!=A,,!ped-up!!wedge![G,F] | %26
!ped! !wedge!A,,!wedge![_G,_E] !wedge!A,,!wedge![G,C] !wedge!_B,,!ped-up!!wedge![G,E] !wedge!B,,!wedge![F,=D] | %27
!ped! !wedge!=B,,!wedge![_A,F] !wedge!B,,!ped-up!!wedge![G,F] !wedge!C,!wedge![G,C] !wedge!F,,!wedge![F,C] | %28
!ped! !wedge!=B,,!wedge![_A,F] !wedge!B,,!ped-up!!wedge![G,F] !wedge!C,!wedge![G,C] !wedge!F,,!wedge![F,C] | %29
!ped! !wedge!_E,,!wedge![_E,C]!ped-up!!ped! !wedge!F,,!wedge![F,C]!ped-up!!ped! !wedge!G,,!wedge![G,C]!ped-up!!ped! !wedge!G,,!wedge![G,=B,]!ped-up! | %30
!ped! !wedge!C,!wedge![G,C]!ped-up! !wedge!F,,!wedge![F,C] !wedge!C,!wedge![G,C]!ped! !wedge!F,,!wedge![F,C]!ped-up! | %31
!ped! !wedge!_E,,!wedge![_E,C]!ped-up!!ped! !wedge!F,,!wedge![F,C]!ped-up!!ped! !wedge!G,,!wedge![G,C]!ped-up!!ped! !wedge!G,,!wedge![G,B,]!ped-up! | %32
!ped! !wedge!C,!wedge![G,C] !wedge!F,,!ped-up!!wedge![F,C]!ped! !wedge!C,!wedge![G,C] !wedge!F,,!ped-up!!wedge![F,C] | %33
!ped! _E,,[_E,C]!ped-up!!ped! F,,[F,C]!ped-up!!ped! _A,,[_A,CF]!ped-up!!ped! G,,[G,DG]!ped-up! | %34
!ped! C,[CG] F,!ped-up![CF] G,[C_E]!ped! G,,[G,D]!ped-up! | %35
!ped! C,[G,C]!ped-up! =B,,[_A,_D]!ped! C,[G,C] B,,!ped-up![A,=D] | %36
!ped! !wedge!C,!wedge![G,C] !wedge!=B,,!ped-up!!wedge![_A,_D]!ped! !wedge!C,!wedge![G,C] !wedge!B,,!ped-up!!wedge![A,=D] | %37
!ped! !wedge!C,!wedge![G,C] !wedge!=B,,!ped-up!!wedge![_A,D] !wedge!C,!wedge![G,C] !wedge!B,,!wedge![A,_D] | %38
!ped! !wedge!C,!wedge![G,C]!ped-up!!ped! !wedge!B,,!wedge![^G,=D]!ped-up!!ped! !wedge!B,,!wedge![A,^D]!ped-up!!ped! !wedge!E,,!wedge![E,B,=D]!ped-up! | %39
!ped! !wedge!A,,!wedge![E,C]!ped-up!!ped! !wedge!C,!wedge![A,E] !wedge!B,,!ped-up!!wedge![F,D] !wedge!E,!wedge![B,E] | %40
 !wedge!C,!wedge![A,E]!ped! !wedge!A,,!wedge![A,E] !wedge!D,!ped-up!!wedge![A,F] !wedge!D,!wedge![^G,F] | %41
 !wedge!C,!wedge![A,F]!ped! !wedge!C,!wedge![A,E] !wedge!B,,!ped-up!!wedge![F,D] !wedge!E,,!wedge![E,B,D] | %42
!ped! !wedge!A,,!wedge![E,C]!ped-up!!ped! !wedge!B,,!wedge![E,D]!ped-up!!ped! !wedge!C,!wedge![E,E]!ped-up!!ped! !wedge!A,,!wedge![E,C]!ped-up! | %43
!ped! !wedge!E,,!wedge![E,D] !wedge!A,,!ped-up!!wedge![E,C]!ped! !wedge!B,,!wedge![E,^G,D] !wedge!A,,!ped-up!!wedge![E,A,C] | %44
!ped! !wedge!B,,!wedge![E,^G,D] !wedge!A,,!ped-up!!wedge![E,A,C]!ped! !wedge!B,,!wedge![E,G,D] !wedge!A,,!ped-up!!wedge![E,A,C] | %45
!ped! !wedge!=G,,!wedge![=G,E]!ped-up!!ped! !wedge!A,,!wedge![A,E]!ped-up!!ped! !wedge!B,,!wedge![B,E]!ped-up!!ped! !wedge!B,,!wedge![B,^D]!ped-up! | %46
!ped! !wedge!E,!wedge![B,E]!ped-up!!ped! !wedge!^D,!wedge![C^F]!ped-up!!ped! !wedge!=D,!wedge![B,=F]!ped-up!!ped! !wedge!E,,!wedge![B,E]!ped-up! | %47
 !wedge!A,,!wedge![A,E]!ped! !wedge!C,!wedge![A,E] !wedge!B,,!ped-up!!wedge![F,D] !wedge!E,!wedge![B,E] | %48
 !wedge!C,!wedge![A,E]!ped! !wedge!A,,!wedge![A,E] !wedge!D,!ped-up!!wedge![A,F] !wedge!D,!wedge![^G,F] | %49
 !wedge!C,!wedge![A,F] !wedge!C,!wedge![A,E] !wedge!B,,!wedge![F,D] !wedge!E,,!wedge![E,B,D] | %50
 !wedge!A,,!wedge![E,A,C] !wedge!B,,!wedge![E,^G,D] !wedge!C,!wedge![E,A,E] !wedge!A,,!wedge![E,A,C] | %51
 !wedge!E,,!wedge![E,D] !wedge!A,,!wedge![E,C] !wedge!B,,!wedge![E,^G,D] !wedge!A,,!wedge![E,A,C] | %52
 !wedge!E,,!wedge![E,D] !wedge!A,,!wedge![E,C] !wedge!B,,!wedge![E,D]!ped! !wedge!^C,!wedge![_B,E]!ped-up! | %53
 !wedge!D,!wedge![_B,D] !wedge!F,!wedge![B,D]!ped! !wedge!D,,!wedge![F,B,]!ped-up!!ped! !wedge!E,,!wedge![E,=B,]!ped-up! | %54
!ped! !wedge!A,,!wedge![E,A,C]!ped-up! !wedge!B,,!wedge![E,^G,D]!ped! !wedge!C,!wedge![E,A,E]!ped-up! !wedge!A,,!wedge![E,A,C] | %55
!ped! !wedge!A,,!wedge![E,A,]!ped-up!!ped! !wedge!C,,!wedge![E,A,]!ped-up!!ped! !wedge!D,,!wedge![F,_B,]!ped-up!!ped! !wedge!E,,!wedge![E,=B,]!ped-up! | %56
!ped! !wedge!A,,!wedge![E,A,]!ped-up! !wedge!D,!wedge![F,A,]!ped! !wedge!A,,!wedge![E,A,] !wedge!D,!ped-up!!wedge![F,A,] | %57
 !wedge!A,,!wedge![E,A,] !wedge!C,!wedge![E,C]!ped! !wedge!B,,!wedge![B,^F]!ped-up!!ped! !wedge!E,!wedge![B,E]!ped-up! | %58
!ped! !wedge!A,,!wedge![A,E]!ped-up! !wedge!D,!wedge![A,D]!ped! !wedge!D,,!wedge![F,_B,]!ped-up!!ped! !wedge!E,,!wedge![E,=B,]!ped-up! | %59
!ped! !wedge!A,,!wedge![E,A,]!ped-up! !wedge!D,!wedge![F,A,]!ped! !wedge!D,,!wedge![F,_B,]!ped-up!!ped! !wedge!E,,!wedge![E,=B,]!ped-up! | %60
!ped! !wedge!F,,!wedge![F,A,]!ped-up!!ped! !wedge!C,,!wedge![C,A,]!ped-up!!ped! !wedge!D,,!wedge![D,_B,]!ped-up!!ped! !wedge!E,,!wedge![E,=B,]!ped-up! | %61
!ped! !wedge!A,,!wedge![E,A,]!ped-up! !wedge!D,!wedge![F,A,] !wedge!A,,!wedge![E,A,] !wedge!D,!wedge![F,A,] | %62
 !wedge!A,,!wedge![E,A,] !wedge!D,!wedge![F,A,] !wedge!A,,!wedge![E,A,]!ped! (A,,[D,_B,]) | %63
 !arpeggio!!>![A,,-D,F,-_B,]8 | [A,,F,]8!ped-up! |!ped! !arpeggio!!fermata![A,,E,A,]8!ped-up! |] %66
V:3
 x2 | x8 | x8 | x8 | x8 | x8 | x8 | x8 | x8 | %9
 z"_stacc." !wedge![Acea] z !wedge![Ae]"^legato." z !wedge![Ad] z !wedge![^Ge] | %10
 z !wedge![Ae] z !wedge![ce] z !wedge![cf] z !wedge![Bf] | %11
 z !wedge![Af] z !wedge![ea] z !wedge![da] z !wedge![e^g] | %12
 z !wedge![ce] z !wedge![Be] z !wedge![Ae] z !wedge![ce] | %13
 z !wedge![Be] z !wedge![Ae] z !wedge![EB] z !wedge![Ae] | %14
 z !wedge![Be] z !wedge![Ae] z !wedge![EB] z !wedge![Ae] | %15
 z !wedge![Be] z !wedge![ce] z !wedge![GB] z !wedge![AB] | %16
 z !wedge![GB] z !wedge![Ac] z !wedge![GB] z !wedge![Ac] | %17
 z !wedge![Be] z !wedge![ce] z !wedge![GB] z !wedge![AB] | %18
 z !wedge![GB] z !wedge![GB] z !wedge![^GB] z !wedge![GB] | x8 | x8 | x8 | x4 z [_G_A] z [FA] | %23
 z [_E_A] z [_DA] z C z [_GA] | z [F_A] z [_DA] z [FA] z [_EA] | z [_G_A] z [FA] z [_EA] z [Gc] | %26
 z [_Gc] z [_EG] z [G_B] z [FB] | z [_Ad] z [Gd] z E2 [FA] | x8 | x8 | %30
 x [_EG] z [F_A] z [EG] z [FA] | x6 x [FG] | z [=EG] z [F_A] z [EG] z [FA] | x8 | x4 x2 x [FG] | %35
 z [=EG]!<(! z [F_A] z [EG] z [FA]!<)! | z [EG] z [F_A] z [EG] z [FA] | %37
 z [EG] z [F_A] z [EG] z [FA] | z [EG] z [F^G] z [^FA] z [EG] | z [EA] z [Ae] z [Ad] z [^Ge] | %40
 z !wedge![Ae] z!>(! [ce] z [cf] z [Bf]!>)! | z [Af] x x x4 | x8 | x8 | x8 | x8 | x8 | %47
 x3 [Ae] z [Ad] z [^Ge] | z [Ae] z [ce] z [cf] z [Bf] | z [Af] z [ea] z [da] z [e^g] | %50
 z [ce] z [Be] z [Ae] z [ce] | x [Be] z [Ae] z [EB] z [Ae] | z [Be] z [Ae] z [EB] x [=G_B] | %53
 z [_G_B] z [FB] z [FB] z [D^G] | x C z [DF] z [CE] z [DF] | z [CE]2 [EA]2 [F_B]2 [D^G]- | %56
 [DG]C z [DF] z [CE] z [DF] | z [CE]!f! z [EA] z [A^d] z [^Ge] | z [=G^c] z [^Fd] z [F_B] z [D^G] | %59
 z [CE] z D4 [D^G]- | [DG] x x4 x x | DC"^dim." z [DF] z [CE] z [DF] | %62
 z [CE] z [DF] z [CE]"^.3" z [DF] | x8 | [DF]8 | x8 |] %66

